src/assets/date-icon.svg

<svg width="18" height="18" viewBox="0 0 427 427" fill="none" xmlns="http://www.w3.org/2000/svg">
<path d="M0 362.667C0 398.933 27.7333 426.667 64 426.667H362.667C398.933 426.667 426.667 398.933 426.667 362.667V192H0V362.667ZM362.667 42.6667H320V21.3333C320 8.53333 311.467 0 298.667 0C285.867 0 277.333 8.53333 277.333 21.3333V42.6667H149.333V21.3333C149.333 8.53333 140.8 0 128 0C115.2 0 106.667 8.53333 106.667 21.3333V42.6667H64C27.7333 42.6667 0 70.4 0 106.667V149.333H426.667V106.667C426.667 70.4 398.933 42.6667 362.667 42.6667Z" fill="#707070"/>
</svg>

<svg width="18" height="18" viewBox="0 0 427 427" fill="none" xmlns="http://www.w3.org/2000/svg"><path d="M0 362.667c0 36.266 27.733 64 64 64h298.667c36.266 0 64-27.734 64-64V192H0v170.667zm362.667-320H320V21.333C320 8.533 311.467 0 298.667 0c-12.8 0-21.334 8.533-21.334 21.333v21.334h-128V21.333C149.333 8.533 140.8 0 128 0c-12.8 0-21.333 8.533-21.333 21.333v21.334H64c-36.267 0-64 27.733-64 64v42.666h426.667v-42.666c0-36.267-27.734-64-64-64z" fill="#707070"/></svg>
